communes/2781.svg

<?xml version="1.0" encoding="UTF-8"?>
<svg width="525" height="612" version="1.1" viewBox="0 0 350 408" xmlns="http://www.w3.org/2000/svg" xmlns:cc="http://creativecommons.org/ns#" xmlns:dc="http://purl.org/dc/elements/1.1/" xmlns:rdf="http://www.w3.org/1999/02/22-rdf-syntax-ns#">
<metadata>
<rdf:RDF>
<cc:Work rdf:about="">
<dc:format>image/svg+xml</dc:format>
<dc:type rdf:resource="http://purl.org/dc/dcmitype/StillImage"/>
</cc:Work>
</rdf:RDF>
</metadata>
<title>Wappen von Blauen</title>
<desc>Wappen der Schweizer Gemeinde Blauen, Kanton Baselland</desc>
<defs>
<clipPath id="a">
<path d="m0 0h350v233a175 175 0 0 1-350 0z"/>
</clipPath>
</defs>
<path d="m2 2h346v231a173 173 0 0 1-346 0z" fill="#ffd400" stroke="#000" stroke-width="4"/>
<path d="m0 156h350v90h-350m175-235 20.5 48.7 52.5 4.3-40 34.5 12.2 51.5-45.2-27.5-45.2 27.5 12.2-52-40-34 52.5-4.3" clip-path="url(#a)"/>
</svg>

<?xml version="1.0" encoding="UTF-8" standalone="no"?>
<svg
   xmlns:dc="http://purl.org/dc/elements/1.1/"
   xmlns:cc="http://creativecommons.org/ns#"
   xmlns:rdf="http://www.w3.org/1999/02/22-rdf-syntax-ns#"
   xmlns:svg="http://www.w3.org/2000/svg"
   xmlns="http://www.w3.org/2000/svg"
   xmlns:sodipodi="http://sodipodi.sourceforge.net/DTD/sodipodi-0.dtd"
   xmlns:inkscape="http://www.inkscape.org/namespaces/inkscape"
   version="1.1"
   width="525"
   height="612"
   viewBox="0 0 350 408"
   id="svg15"
   sodipodi:docname="2781.svg">
  <metadata
     id="metadata19">
    <rdf:RDF>
      <cc:Work
         rdf:about="">
        <dc:format>image/svg+xml</dc:format>
        <dc:type
           rdf:resource="http://purl.org/dc/dcmitype/StillImage" />
      </cc:Work>
    </rdf:RDF>
  </metadata>
  <sodipodi:namedview
     pagecolor="#ffffff"
     bordercolor="#666666"
     borderopacity="1"
     objecttolerance="10"
     gridtolerance="10"
     guidetolerance="10"
     inkscape:pageopacity="0"
     inkscape:pageshadow="2"
     inkscape:window-width="640"
     inkscape:window-height="480"
     id="namedview17" />
  <title
     id="title2">Wappen von Blauen</title>
  <desc
     id="desc4">Wappen der Schweizer Gemeinde Blauen, Kanton Baselland</desc>
  <defs
     id="defs9">
    <clipPath
       id="cpSchild">
      <path
         d="M 0,0 H 350 V 233 A 175 175 0 0 1 0,233 z"
         id="path6" />
    </clipPath>
  </defs>
  <path
     d="M 2,2 h 346 V 233 A 173 173 0 0 1 2,233 z"
     stroke="black"
     stroke-width="4"
     fill="#ffd400"
     id="path11" />
  <path
     d="M 0,156 H 350 v 90 H 0 M 175,11 L 195.5,59.7 248,64 208,98.5 220.2,150 175,122.5 129.8,150 142,98 102,64 154.5,59.7"
     clip-path="url(#cpSchild)"
     id="path13" />
</svg>
